; HEADER_BLOCK_START
; generated by AnycubicSlicerNext 1.3.6.1 on 2025-09-09 at 13:32:07
; total layer number: 200
; filament_density: 1.24,1.24,1.24,1.24
; filament_diameter: 1.75,1.75,1.75,1.75
; max_z_height: 40.40
; exclude_object: 1
; model_instances: 1
; source_info: {"models":[{"file_source":0,"mo_file_id":-1,"name":"Stunning_Rottis.stl_id_0_copy_0"}],"models_from":0,"plate_index":1,"slice_paras_process":1,"software_version":"AnycubicSlicerNext 1.3.6.1 20250722144031"}
; HEADER_BLOCK_END

; THUMBNAIL_BLOCK_START
; THUMBNAIL_BLOCK_END

; THUMBNAIL_BLOCK_START
; THUMBNAIL_BLOCK_END

; external perimeters extrusion width = 0.42mm
; perimeters extrusion width = 0.45mm
; infill extrusion width = 0.45mm
; solid infill extrusion width = 0.42mm
; top infill extrusion width = 0.42mm
; support material extrusion width = 0.40mm
; first layer extrusion width = 0.50mm

; EXECUTABLE_BLOCK_START
EXCLUDE_OBJECT_DEFINE NAME=Stunning_Rottis.stl_id_0_copy_0 CENTER=127.5,127.5 POLYGON=[[110,123.702],[127.896,115.567],[132.23,115.521],[137.138,117.431],[140.056,120.139],[144.946,132.533],[143.614,134.236],[134.704,139.508],[124.58,138.992],[111.392,129.991],[110,123.702]]
M201 X15000 Y15000 Z5000 E20000 ; sets machine_max_acceleration_x, y, z, e (mm/sec^2)
M203 X600 Y600 Z10 E80 ; sets machine_max_speed_x, y, z, e (mm/sec)
M204 P20000 R20000 T20000 ; sets machine_max_acceleration(mm/sec^2) M204 P[print] R[retract] T[travel]
M205 X20.00 Y20.00 Z3.00 E5.00 ; sets the jerk limits, mm/sec
;TYPE:Custom
G9111 bedTemp=60 extruderTemp=220
M117
M900 K0.051
; print_bed_min = 0,0
; print_bed_max = 255,255
; print_bed_size = 255,255
; first_layer_print_min = 103.812,103.115
; first_layer_print_max = 154.727,141.521
; first_layer_print_size = 50.9144,38.4062
G90
G21
M83 ; use relative distances for extrusion
; filament start gcode
T0
M106 S0
;LAYER_CHANGE
;Z:0.2
;HEIGHT:0.2
; BEFORE_LAYER_CHANGE 0 @ 0.2mm
G1 E-1 F3600
; AFTER_LAYER_CHANGE 0 @ 0.2mm
M204 P500
SET_VELOCITY_LIMIT SQUARE_CORNER_VELOCITY=9
; printing object "Stunning Rottis.stl" id:0 copy 0
EXCLUDE_OBJECT_START NAME=Stunning_Rottis.stl_id_0_copy_0
G1 Z0.200 ; for object exclusion
G1 X125.442 Y105.377 F21000
G1 Z.6
G1 Z.2
G1 E1 F3600
;TYPE:Support
;WIDTH:0.5
G1 F2700
G1 X126.915 Y105.676 E.05485
G1 X128.319 Y106.234 E.05513
G1 X129.635 Y107.051 E.05649
G1 X130.879 Y108.202 E.06186
G1 X131.8 Y109.587 E.06068
G1 X132.399 Y110.981 E.05539
G1 X132.74 Y112.449 E.05498
G1 X132.817 Y113.933 E.05422
G1 X132.682 Y115.038 E.04059
G1 X132.659 Y115.016 E.00116
G1 X131.755 Y114.91 E.03321
G1 X128.461 Y114.9 E.12016
G1 X127.737 Y114.999 E.02666
G1 X127.585 Y115.067 E.00608
G1 X127.341 Y115.269 E.01155
G1 X127.228 Y115.5 E.00937
G1 X127.175 Y117.015 E.05534
G1 X127.032 Y116.997 E.00527
G1 X123.152 Y116.984 E.14156
G1 X123.024 Y117.012 E.00479
G1 X122.651 Y117.171 E.01478
G1 X121.866 Y117.771 E.03603
G1 X121.67 Y118.117 E.01453
G1 X121.631 Y118.271 E.00579
G1 X121.655 Y120.272 E.07301
G1 X119.811 Y120.288 E.0673
G1 X119.608 Y120.366 E.00795
G1 X119.325 Y120.577 E.01288
G1 X119.086 Y120.975 E.01692
G1 X119.045 Y121.127 E.00576
G1 X119.034 Y123.277 E.07843
G1 X118.616 Y123.301 E.01526
G1 X118.2 Y123.428 E.01587
G1 X117.901 Y123.612 E.01281
G1 X117.781 Y123.771 E.00727
G1 X117.65 Y124.187 E.01591
G1 X117.569 Y124.595 E.01519
G1 X117.564 Y129.864 E.19223
G1 X117.582 Y131.238 E.05014
G1 X117.704 Y131.701 E.01749
G1 X118.055 Y132.68 E.03795
G1 X118.298 Y132.887 E.01165
G1 X118.883 Y132.993 E.02169
G1 X119.544 Y133.006 E.02413
G1 X119.548 Y133.983 E.03565
G1 X118.196 Y134.799 E.05761
G1 X116.873 Y135.317 E.05184
G1 X115.439 Y135.603 E.05336
G1 X114.041 Y135.63 E.051
G1 X113.14 Y135.52 E.03311
G1 X112.339 Y135.358 E.02984
G1 X110.84 Y134.84 E.05787
G1 X109.729 Y134.155 E.04762
G1 X109.047 Y133.657 E.0308
G1 X108.457 Y133.115 E.02923
G1 X107.704 Y132.214 E.04285
G1 X107.095 Y131.268 E.04104
G1 X106.612 Y130.235 E.04158
G1 X106.154 Y128.705 E.05828
G1 X106.038 Y126.672 E.07429
G1 X106.293 Y125.225 E.05362
G1 X106.498 Y124.52 E.0268
G1 X106.854 Y123.605 E.03584
G1 X107.386 Y122.641 E.04015
G1 X107.818 Y122.053 E.02664
G1 X108.147 Y121.638 E.01932
G1 X108.937 Y120.847 E.04077
G1 X109.642 Y120.293 E.03271
G1 X110.297 Y119.872 E.0284
G1 X111.715 Y119.204 E.05721
G1 X112.902 Y118.919 E.04454
G1 X113.749 Y118.789 E.03128
G1 X115.326 Y118.775 E.05754
G1 X116.558 Y119.031 E.04592
G1 X118.076 Y119.455 E.05749
G1 X118.27 Y119.119 E.01418
G1 X118.06 Y118.914 E.0107
G1 X117.49 Y118.157 E.03455
G1 X117.043 Y117.428 E.03122
G1 X116.501 Y116.052 E.05395
G1 X116.205 Y114.599 E.05412
G1 X116.165 Y113.109 E.05436
G1 X116.387 Y111.627 E.05467
G1 X116.873 Y110.186 E.05549
G1 X117.703 Y108.7 E.06213
G1 X118.891 Y107.459 E.06266
G1 X119.809 Y106.758 E.04214
G1 X120.342 Y106.443 E.02262
G1 X121.155 Y106.021 E.03339
G1 X122.493 Y105.568 E.05154
G1 X123.951 Y105.343 E.05383
G1 X125.373 Y105.376 E.05191
G1 X132.071 Y114.738 F21000
G1 F2700
G1 X132.071 Y111.385 E.12235
G1 X132.007 Y111.11 E.01029
G1 X131.563 Y110.078 E.04101
G1 X131.563 Y114.498 E.16129
G1 X131.055 Y114.499 E.01853
G1 X131.055 Y109.21 E.19299
G1 X130.547 Y108.455 E.03319
G1 X130.547 Y114.499 E.22054
G1 X130.039 Y114.5 E.01853
G1 X130.039 Y107.985 E.2377
G1 X129.531 Y107.516 E.02524
G1 X129.531 Y114.5 E.25484
G1 X129.024 Y114.495 E.01853
G1 X129.024 Y107.155 E.26779
G1 X128.516 Y106.84 E.02181
G1 X128.516 Y114.49 E.2791
G1 X128.008 Y114.546 E.01864
G1 X128.008 Y106.553 E.29162
G1 X127.5 Y106.351 E.01994
G1 X127.5 Y114.655 E.30296
G1 X127.366 Y114.714 E.00534
G1 X127.011 Y115.009 E.01685
G1 X126.992 Y115.047 E.00155
G1 X126.992 Y106.15 E.32463
G1 X126.797 Y106.072 E.00765
G1 X126.484 Y106.009 E.01165
G1 X126.484 Y116.584 E.38585
G1 X125.976 Y116.582 E.01853
G1 X125.976 Y105.906 E.38954
G1 X125.469 Y105.803 E.01891
G1 X125.469 Y116.581 E.39324
G1 X124.961 Y116.579 E.01853
G1 X124.961 Y105.778 E.39408
G1 X124.453 Y105.766 E.01853
G1 X124.453 Y116.577 E.39445
G1 X123.945 Y116.576 E.01853
G1 X123.945 Y105.76 E.3946
G1 X123.437 Y105.839 E.01875
G1 X123.437 Y116.574 E.39168
G1 X123.108 Y116.573 E.012
G1 X122.929 Y116.612 E.00669
G1 X122.929 Y105.917 E.39021
G1 X122.591 Y105.969 E.01249
G1 X122.421 Y106.027 E.00653
G1 X122.421 Y116.829 E.39415
G1 X121.913 Y117.205 E.02304
G1 X121.913 Y106.199 E.40157
G1 X121.406 Y106.371 E.01956
G1 X121.406 Y117.75 E.41518
G1 X121.285 Y117.963 E.00892
G1 X121.219 Y118.222 E.00976
G1 X121.239 Y119.864 E.05993
G1 X120.898 Y119.867 E.01245
G1 X120.898 Y106.618 E.4834
G1 X120.39 Y106.893 E.02106
G1 X120.39 Y119.871 E.47354
G1 X119.882 Y119.876 E.01853
G1 X119.882 Y107.22 E.46176
G1 X119.374 Y107.608 E.02332
G1 X119.374 Y120.023 E.45299
G1 X119.019 Y120.289 E.01616
G1 X118.866 Y120.535 E.01059
G1 X118.866 Y108.08 E.45445
G1 X118.358 Y108.61 E.0268
G1 X118.358 Y118.627 E.36546
G1 X117.851 Y117.952 E.03082
G1 X117.851 Y109.28 E.31641
G1 X117.343 Y110.189 E.038
G1 X117.343 Y117.065 E.2509
G1 X116.897 Y115.935 E.04435
G1 X116.835 Y115.629 E.01137
G1 X116.835 Y110.942 E.171
;WIPE_START
G1 X116.835 Y112.942 E-1
;WIPE_END
G1 X117.562 Y120.54 Z.6 F21000
G1 X118.866 Y134.154 Z.6
G1 Z.2
G1 E1 F3600
G1 F2700
G1 X118.866 Y133.404 E.02739
G1 X118.358 Y133.317 E.0188
G1 X118.358 Y134.221 E.03297
G1 X118.013 Y134.429 E.01471
G1 X117.851 Y134.493 E.00637
G1 X117.851 Y132.719 E.0647
;WIPE_START
G1 X117.851 Y134.493 E-.88657
G1 X118.013 Y134.429 E-.08735
G1 X118.058 Y134.402 E-.02608
;WIPE_END
G1 X118.262 Y126.772 Z.6 F21000
G1 X118.358 Y123.169 Z.6
G1 Z.2
G1 E1 F3600
G1 F2700
G1 X118.358 Y119.789 E.12332
G1 X118.273 Y119.938 E.00626
G1 X117.851 Y119.819 E.016
G1 X117.851 Y123.398 E.13055
G1 X117.343 Y134.912 F21000
G1 F2700
G1 X117.343 Y119.677 E.55586
G1 X116.835 Y119.535 E.01924
G1 X116.835 Y134.89 E.56024
G1 X116.757 Y134.921 E.00306
G1 X116.327 Y135.006 E.01599
G1 X116.327 Y119.403 E.56932
G1 X115.819 Y119.297 E.01893
G1 X115.819 Y135.108 E.57686
G1 X115.394 Y135.193 E.01581
G1 X115.311 Y135.194 E.00303
G1 X115.311 Y119.192 E.58386
G1 X114.803 Y119.191 E.01853
G1 X114.803 Y135.204 E.58425
G1 X114.295 Y135.213 E.01853
G1 X114.295 Y119.195 E.58444
G1 X113.788 Y119.2 E.01853
G1 X113.788 Y135.184 E.58321
G1 X113.28 Y135.122 E.01867
G1 X113.28 Y119.277 E.57814
G1 X112.772 Y119.373 E.01886
G1 X112.772 Y135.026 E.57111
G1 X112.447 Y134.96 E.01209
G1 X112.264 Y134.897 E.00707
G1 X112.264 Y119.495 E.56196
G1 X111.852 Y119.594 E.01546
G1 X111.756 Y119.639 E.00386
G1 X111.756 Y134.721 E.5503
G1 X111.248 Y134.546 E.01961
G1 X111.248 Y119.878 E.53515
G1 X110.74 Y120.118 E.02049
G1 X110.74 Y134.295 E.51728
G1 X110.233 Y133.982 E.02177
G1 X110.233 Y120.402 E.49547
G1 X109.88 Y120.629 E.01527
G1 X109.725 Y120.751 E.00723
G1 X109.725 Y133.642 E.47035
G1 X109.217 Y133.254 E.02332
G1 X109.217 Y121.15 E.44164
G1 X108.709 Y121.658 E.02621
G1 X108.709 Y132.775 E.40563
G1 X108.201 Y132.167 E.0289
G1 X108.201 Y122.233 E.36247
G1 X107.693 Y122.936 E.03165
G1 X107.693 Y131.437 E.31017
G1 X107.456 Y131.068 E.01599
G1 X107.185 Y130.49 E.0233
G1 X107.185 Y123.888 E.24087
G1 X106.888 Y124.652 E.02993
G1 X106.677 Y125.412 E.02874
G1 X106.677 Y129.737 E.15781
;WIPE_START
G1 X106.677 Y127.737 E-1
;WIPE_END
G1 X113.76 Y124.893 Z.6 F21000
G1 X144.43 Y112.581 Z.6
G1 Z.2
G1 E1 F3600
G1 F2700
G1 X145.238 Y112.612 E.0295
G1 X146.703 Y112.939 E.05478
G1 X148.084 Y113.523 E.0547
G1 X149.339 Y114.345 E.05473
G1 X150.426 Y115.379 E.05475
G1 X151.311 Y116.591 E.05477
G1 X151.964 Y117.943 E.05478
G1 X152.364 Y119.391 E.05478
G1 X152.498 Y120.886 E.05478
G1 X152.362 Y122.381 E.05478
G1 X151.959 Y123.827 E.05476
G1 X151.305 Y125.177 E.05474
G1 X150.419 Y126.387 E.05472
G1 X149.332 Y127.419 E.05469
G1 X149.036 Y127.612 E.01289
G1 X149.339 Y127.993 E.01774
G1 X150.028 Y129.604 E.06394
G1 X150.254 Y131.275 E.06154
G1 X150.028 Y132.947 E.06154
G1 X149.338 Y134.558 E.06394
G1 X148.292 Y135.873 E.06132
G1 X146.962 Y136.841 E.06
G1 X146.091 Y137.196 E.03432
G1 X145.23 Y137.49 E.03321
G1 X143.595 Y137.636 E.0599
G1 X142.034 Y137.35 E.05791
G1 X141.188 Y136.995 E.03346
G1 X140.29 Y136.514 E.03718
G1 X139.62 Y135.924 E.03256
G1 X139.617 Y135.221 E.02563
G1 X140.134 Y135.208 E.01888
G1 X140.251 Y135.266 E.00475
G1 X140.565 Y135.17 E.01198
G1 X140.824 Y135.142 E.00951
G1 X140.974 Y135.1 E.0057
G1 X141.16 Y134.992 E.00785
G1 X141.269 Y134.884 E.00561
G1 X141.806 Y133.972 E.03861
G1 X142.139 Y133.268 E.0284
G1 X142.209 Y132.945 E.01208
G1 X142.206 Y130.481 E.08989
G1 X142.223 Y129.297 E.04321
G1 X142.189 Y128.859 E.01603
G1 X142.661 Y128.857 E.01723
G1 X142.857 Y128.786 E.00759
G1 X143.178 Y128.521 E.01521
G1 X143.293 Y128.275 E.00989
G1 X143.279 Y126.974 E.04747
G1 X143.16 Y125.853 E.04112
G1 X143.035 Y125.126 E.02692
G1 X142.846 Y124.592 E.02067
G1 X142.537 Y124.373 E.01385
G1 X140.788 Y124.364 E.06382
G1 X140.77 Y120.561 E.13875
G1 X140.619 Y119.917 E.02413
G1 X140.542 Y119.779 E.00578
G1 X140.272 Y119.5 E.01416
G1 X140.05 Y119.405 E.00882
G1 X139.567 Y119.402 E.01763
G1 X138.88 Y119.361 E.02511
G1 X137.858 Y119.361 E.03729
G1 X137.869 Y117.526 E.06694
G1 X137.831 Y117.377 E.0056
G1 X137.722 Y117.179 E.00824
G1 X137.475 Y116.938 E.0126
G1 X137.179 Y116.822 E.01161
G1 X137.06 Y116.839 E.00436
G1 X136.913 Y116.829 E.00539
G1 X137.397 Y116.01 E.03472
G1 X138.372 Y114.883 E.05437
G1 X139.533 Y113.947 E.05442
G1 X140.844 Y113.232 E.05448
G1 X142.263 Y112.762 E.05454
G1 X143.749 Y112.552 E.05475
G1 X144.361 Y112.578 E.02236
G1 X151.878 Y123.354 F21000
G1 F2700
G1 X151.878 Y119.175 E.15248
G1 X151.577 Y118.089 E.0411
G1 X151.37 Y117.659 E.01743
G1 X151.37 Y124.1 E.23503
G1 X150.951 Y124.964 E.03503
G1 X150.862 Y125.086 E.00549
G1 X150.862 Y116.674 E.30692
G1 X150.354 Y115.978 E.03144
G1 X150.354 Y125.78 E.35763
G1 X150.109 Y126.114 E.01514
G1 X149.846 Y126.364 E.01322
G1 X149.846 Y115.395 E.40021
G1 X149.338 Y114.912 E.02557
G1 X149.338 Y126.845 E.4354
G1 X149.075 Y127.095 E.01322
G1 X148.83 Y127.255 E.01068
G1 X148.83 Y114.504 E.46524
G1 X148.323 Y114.171 E.02215
G1 X148.323 Y135.174 E.76632
G1 X148.005 Y135.573 E.01862
G1 X147.815 Y135.712 E.00858
G1 X147.815 Y113.856 E.79744
G1 X147.307 Y113.641 E.02012
G1 X147.307 Y136.081 E.81876
G1 X146.799 Y136.451 E.02292
G1 X146.799 Y113.426 E.84009
G1 X146.577 Y113.333 E.00879
G1 X146.291 Y113.269 E.01069
G1 X146.291 Y136.67 E.85384
G1 X145.783 Y136.867 E.01986
G1 X145.783 Y113.155 E.86513
G1 X145.275 Y113.042 E.01899
G1 X145.275 Y137.04 E.87559
G1 X145.144 Y137.084 E.00506
G1 X144.767 Y137.118 E.01379
G1 X144.767 Y113.005 E.87978
G1 X144.26 Y112.985 E.01854
G1 X144.26 Y137.164 E.88217
G1 X143.752 Y137.209 E.0186
G1 X143.752 Y112.967 E.88448
G1 X143.244 Y113.039 E.01871
G1 X143.244 Y124.483 E.41754
G1 X143.191 Y124.332 E.00583
G1 X142.736 Y124.009 E.02034
G1 X142.736 Y113.111 E.39765
G1 X142.357 Y113.164 E.01395
G1 X142.228 Y113.207 E.00496
G1 X142.228 Y123.96 E.39233
G1 X141.72 Y123.957 E.01853
G1 X141.72 Y113.375 E.3861
G1 X141.212 Y113.543 E.01952
G1 X141.212 Y123.955 E.37987
G1 X141.197 Y123.954 E.00056
G1 X141.182 Y120.535 E.12478
G1 X141.167 Y120.414 E.00442
G1 X141.005 Y119.765 E.0244
G1 X140.875 Y119.532 E.00974
G1 X140.705 Y119.355 E.00897
G1 X140.705 Y113.776 E.20354
G1 X140.197 Y114.053 E.02111
G1 X140.197 Y119.02 E.18122
G1 X140.135 Y118.994 E.00243
G1 X139.689 Y118.991 E.01629
G1 X139.689 Y114.35 E.16935
G1 X139.181 Y114.759 E.0238
G1 X139.181 Y118.966 E.1535
G1 X138.673 Y118.949 E.01854
G1 X138.673 Y115.169 E.13793
G1 X138.165 Y115.751 E.02819
G1 X138.165 Y117.131 E.05034
G1 X138.063 Y116.946 E.00771
G1 X137.936 Y116.794 E.00722
G1 X137.796 Y116.681 E.00656
G1 X137.726 Y116.595 E.00406
G1 X137.657 Y116.568 E.00271
G1 X137.657 Y116.024 E.01984
;WIPE_START
G1 X137.657 Y116.568 E-.27184
G1 X137.726 Y116.595 E-.03714
G1 X137.796 Y116.681 E-.05565
G1 X137.936 Y116.794 E-.08993
G1 X138.063 Y116.946 E-.09889
G1 X138.165 Y117.131 E-.10562
G1 X138.165 Y116.449 E-.34093
;WIPE_END
G1 X142.256 Y122.893 Z.6 F21000
G1 X149.338 Y134.048 Z.6
G1 Z.2
G1 E1 F3600
G1 F2700
G1 X149.338 Y129.018 E.18351
G1 X148.983 Y128.207 E.0323
G1 X148.83 Y128.015 E.00897
G1 X148.83 Y134.866 E.24998
G1 X143.244 Y137.363 F21000
G1 F2700
G1 X143.244 Y129 E.30511
G1 X143.064 Y129.149 E.00852
G1 X142.736 Y129.267 E.01272
G1 X142.736 Y137.06 E.28434
G1 X142.228 Y136.967 E.01884
G1 X142.228 Y134.044 E.10668
G1 X141.72 Y134.929 E.03725
G1 X141.72 Y136.772 E.06724
G1 X141.212 Y136.541 E.02036
G1 X141.212 Y135.438 E.04026
G1 X141.135 Y135.483 E.00326
G1 X140.881 Y135.552 E.0096
G1 X140.705 Y135.572 E.0065
G1 X140.705 Y136.269 E.02544
G1 X140.526 Y136.174 E.0074
G1 X140.197 Y135.884 E.01601
G1 X140.197 Y135.469 E.01514
;WIPE_START
G1 X140.197 Y135.884 E-.20748
G1 X140.526 Y136.174 E-.21935
G1 X140.705 Y136.269 E-.10136
G1 X140.705 Y135.572 E-.34868
G1 X140.881 Y135.552 E-.08901
G1 X140.947 Y135.534 E-.03412
;WIPE_END
G1 X140.252 Y128.758 Z.6 F21000
G1 Z.2
G1 E1 F3600
;TYPE:Inner wall
G1 F2700
G1 X140.248 Y128.822 E.00232
G1 X140.794 Y129.078 E.02201
G1 X140.816 Y129.323 E.00896
G1 X140.799 Y130.472 E.04192
G1 X140.802 Y132.794 E.08474
G1 X140.751 Y132.902 E.00435
G1 X140.639 Y133.02 E.00596
G1 X140.612 Y133.208 E.00692
G1 X140.566 Y133.303 E.00385
G1 X140.271 Y133.801 E.02112
G1 X138.319 Y133.85 E.07125
G1 X137.919 Y134.82 E.0383
G1 X138.209 Y135.125 E.01534
G1 X138.212 Y136.397 E.04641
G1 X135.451 Y136.418 E.10075
G1 X134.904 Y137.194 E.03462
G1 X134.892 Y138.542 E.04915
G1 X134.801 Y138.551 E.00332
G1 X134.672 Y138.658 E.00613
G1 X134.589 Y138.69 E.00325
G1 X134.354 Y138.714 E.0086
G1 X128.736 Y138.712 E.20498
G1 X128.707 Y138.343 E.01351
G1 X128.173 Y138.201 E.02016
G1 X127.492 Y137.83 E.02829
G1 X127.251 Y138.167 E.01511
G1 X126.946 Y138.17 E.01116
G1 X126.812 Y138.21 E.0051
G1 X125.505 Y138.197 E.04768
G1 X124.751 Y138.17 E.02752
G1 X124.682 Y138.139 E.00278
G1 X124.239 Y137.83 E.0197
G1 X124.235 Y135.783 E.07467
G1 X123.404 Y134.751 E.04834
G1 X122.962 Y135.1 E.02055
G1 X121.064 Y135.105 E.06926
G1 X120.958 Y134.962 E.0065
G1 X120.95 Y132.398 E.09354
G1 X120.573 Y131.628 E.03127
G1 X119.138 Y131.591 E.05237
G1 X119.111 Y131.186 E.01482
G1 X119.002 Y131.11 E.00484
